X: 20923
Q: "Slow and tenderly."
U: p=!crescendo(!
U: P=!crescendo)!
U: Q=!diminuendo(!
U: q=!diminuendo)!
M: 3/4
L: 1/8
K: Eb
EF |!p!\
"^>"e4 (dc) | "^>"B2 !p!G2 (c>d) | "^>"B2 !pp!G2 c>d | B2 !mf!G2 EF |\
pG2 B2 (cPd) | "^>"e2 e2 (dc) | (BA) (GF) (EF) "cres."| G2 !f!c2 (Bc) |\
"^>"e2 d2 c2 | "^>"B2 G2 !p!(AG) | pF2 E2 (GPB) | !f!c2 e2 |]


